X:1
T:Father Kelly's 
R:Reel
M:C|
L:1/8
K:G
%%scale .5
%%text Play pickups on transition
%%scale .8
GA|"G"B2 GB "G/A"AGEG|"G/B"DGGF "G"GABd|"C"c2AB "C/B"cBAG|"Am"EAAG "D"FDGA|
"G"B2GB AGEG|DGGF GABd|"C"cdef "G"gdBd|"D"cAFA "G"G2:|
|:Bc|"G"d2Bd gdBd|d2 Bd gdBd|"C"e2 ce agfe|"D"defg agfe|
"G"d2Bd gdBd|d2 Bd gdBd|"C"c2dc "G"BAGB|"D"ADFA "G"G2:|

